X:1083
T:Humours of Enistymon, The
O:ireland
R:Jig
M:6/8
K:G
B2G GdB|c2A Adc|B2G GAB|cAG FGA|\
B2G GdB|c2A ABc|
ded cAF|1 G3 G2A :|2 G3|:\
GBd|\
f3 fed|cAG FGA|Ggg gfg|afd d2e|
f3 fed|cAG FGA|BdB cAF|AGF ::\
G2g|\
gdB gdB|ecA ecA|
B2G GAB|cAG FGA|\
gdB gdB|ecA ecA|B2G GBd|1 cAF :|2 cFA G3||
